X: 1
P: Campbell's Farewell to Redcastle
C: from Matt Petrie
C: arr. T. Traub 12-29-97, mods. 2-24-2004
L: 1/4
M: 4/4
R: Reel
K: A
e|"A"A>B c d|e a e>d|c AA B/c/|"G"d>B =G B|"A"A>B c d|e a e>d|"A"c B/A/ "G"=G B|"A"A2 A||
=g/f/|"A"e a a =g/f/|e a e>d|c A A B/c/|"G"d>B =G =g/f/|"A"e a a =g/f/|e a e>d|c B/A/ "G"=G B|"A"A2 A||
=g/f/|"A"e a a =g/f/|e a e>d|c A A B/c/|"G"d>B =G B|"A"A>B c d |e a e>d|"A"c B/A/ "G"=G B|"A"A2 A|]
